X:1
T:Lo-fi Lullaby in Dm
M:4/4
L:1/8
K:Dm
A3B AGFD|E4 AGFE|F2F2 G2G2|A2A2 F4|D2D2 C2C2|B2B2 A4|A3B AGFD|D4||